X: 13485
T: Flower Of The Town
R: jig
M: 6/8
K: Dmajor
|:E2 E E2 D|E2 E GFE|F2 D DED|DED FED|
E2 E E2 D|E2 E GFE|FGA BAG|1 F2D D2 F:|2 F2 D D2 A||
|:d2 e fed|c2 a aec|B2 g ged|e2d cBA|d2 e fed|c2 a aec|
Bcd e2 d|c2 A ABA|d2 e fed|c2 a aec|B2 g ged|
efd cBA|d2 e fed|c2 a aec|1 Bcd Bcd|e2 d cBA:|
[2 Bcd e2d|cBA GFE||D3 D2 z||

